!!!!SEGMENT: pl-wtm--r-995--006_krogulski-jozef-wladyslaw--msza-pasterska-sanctus.krn
!!!cenid: 18xx:2088
!!!COM: Krogulski, Józef Władysław
!!!COM-rismid: pe30001797
!!!CDT: 1815/10/04-1842/01/09
!!!CNT: Polish
!!!OPR: Msza pasterska
!!!OTL: Sanctus
!!!OMV: 006
!!!PDT:
!!!AGN: Sacred; Mass
!!!SMS-siglum: PL-Wtm
!!!SMS-shelfmark: R 995
!!!SMS-shelfwork: 001-006 M
!!!SMS-variant:
!!!SMS-altvar:
!!!NIFC-rismid: 1001083272
!!!URL-scan: http://repozytorium.nifc.pl/skany/pl-wtm-nut--r995
!!!ONB-nifc: UWAGA: części Mszy: 1. Kyrie, 2. Gloria, 3. Graduale, 4. Credo, 5. Offertorium, 6. Sanctus, 7. Benedictus, 8. Agnus Dei, 9. Dona nobis
!!!OMD: Andante
**kern	**kern	**dynam	**kern	**text	**kern	**text	**kern	**text	**kern	**text
*part5	*part5	*part5	*part4	*part4	*part3	*part3	*part2	*part2	*part1	*part1
*staff6	*staff5	*	*staff4	*staff4	*staff3	*staff3	*staff2	*staff2	*staff1	*staff1
*	*I"Organ	*	*I"Baſso	*	*I"Tenoro	*	*I"2.	*	*I"Sopra 1.	*
*clefF4	*clefG2	*	*clefF4	*	*clefG2	*	*clefG2	*	*clefG2	*
*k[]	*k[]	*	*k[]	*	*k[]	*	*k[]	*	*k[]	*
*C:	*C:	*	*C:	*	*C:	*	*C:	*	*C:	*
*M3/4	*M3/4	*	*M3/4	*	*M3/4	*	*M3/4	*	*M3/4	*
*	*	*	*	*	*ITrd7c12	*	*	*	*	*
=1	=1	=1	=1	=1	=1	=1	=1	=1	=1	=1
*2\right	*2\right	*	*2\right	*	*2\right	*	*2\right	*	*2\right	*
2c 2C\	2ee 2cc\	.	2c\	.	2e\	.	2cc\	.	2ee\	San-
4G 4GG\	4dd 4b\	.	4G\	.	4f\	.	4b\	.	4dd\	-c-
=2	=2	=2	=2	=2	=2	=2	=2	=2	=2	=2
2A 2AA\	2cc 2a\	.	2A\	.	2e\	.	2a/	.	2cc\	-ctus
4r	16b\LL	.	4r	.	4r	.	4r	.	4r	.
.	16cc\	.	.	.	.	.	.	.	.	.
.	16dd\	.	.	.	.	.	.	.	.	.
.	16ee\JJ	.	.	.	.	.	.	.	.	.
=3	=3	=3	=3	=3	=3	=3	=3	=3	=3	=3
2.D 2.DD/	2ff 2dd\	.	2.D\	.	(2d\	.	2.a/	.	(2ff\	San-
.	4ee 4cc\	.	.	.	4c\)	.	.	.	4ee\)	.
=4	=4	=4	=4	=4	=4	=4	=4	=4	=4	=4
2G 2GG\	2dd 2b\	.	2G\	.	2B\	.	2b\	.	2dd\	-ctus
4r	16dd\LL	.	4r	.	4r	.	4r	.	4r	.
.	16ee\	.	.	.	.	.	.	.	.	.
.	16ff\	.	.	.	.	.	.	.	.	.
.	16ff#X\JJ	.	.	.	.	.	.	.	.	.
=5	=5	=5	=5	=5	=5	=5	=5	=5	=5	=5
*	*^	*	*	*	*	*	*	*	*	*
[2.C [2.CC/	4gg 4ee\	4ryy	.	[2.C/	Do-	2G/	.	2e/	.	(4gg\	San-
.	8cc/L	4e\	.	.	.	.	.	.	.	8cc\L	.
.	8ee/	.	.	.	.	.	.	.	.	8ee\J)	.
.	8dd/	4f\	.	.	.	4A/	.	4f/	.	8dd\L	-ctus
.	8cc/J	.	.	.	.	.	.	.	.	8cc\J	.
=6	=6	=6	=6	=6	=6	=6	=6	=6	=6	=6	=6
2.C_ 2.CC/_	4.b/	2.f\	.	4C/]	.	4.B\	.	4.f/	.	4.b\	Do-
.	.	.	.	4C/	-mi-	.	.	.	.	.	.
.	8a/	.	.	.	.	8c\	.	8f/	.	8a/	-mi-
.	4g/	.	.	4C/	-nus	4d\	.	4f/	.	4g/	-nus
=7	=7	=7	=7	=7	=7	=7	=7	=7	=7	=7	=7
2.C_ 2.CC/_	4g/	2e\	.	[2.C/	De-	2G/	.	2e/	.	(4gg\	De-
.	8cc/L	.	.	.	.	.	.	.	.	8cc\L	.
.	8ee/	.	.	.	.	.	.	.	.	8ee\J)	.
.	8dd/	4a 4f\	.	.	.	4A/	.	4f/	.	8dd\L	-us
.	8cc/J	.	.	.	.	.	.	.	.	8cc\J	.
=8	=8	=8	=8	=8	=8	=8	=8	=8	=8	=8	=8
2.C_ 2.CC/_	4.b/	2.f\	.	2C/]	.	4.B\	.	4.f/	.	4.b/	Sa-
.	8a/	.	.	.	.	8c\	.	8f/	.	8a/	ba-
.	4g/	.	.	4C/	-us	4d\	.	4f/	.	4g/	-oth
*	*v	*v	*	*	*	*	*	*	*	*	*
=9	=9	=9	=9	=9	=9	=9	=9	=9	=9	=9
2.C] 2.CC/]	2.g 2.e/	.	2.C/	Sa-	2c\	.	2e/	.	2g/	De-
.	.	.	.	.	4c\	.	4e/	.	4g/	-us
=10	=10	=10	=10	=10	=10	=10	=10	=10	=10	=10
2.F 2.FF/	2.a 2.f/	.	2.F\	-ba-	2c\	.	2f/	.	2a/	Sa-
.	.	.	.	.	4c\	.	4f/	.	4a/	-ba-
=11	=11	=11	=11	=11	=11	=11	=11	=11	=11	=11
[2.C [2.CC/	[2.cc [2.e\	.	[2.C/	-oth	[2.c\	.	[2.e/	.	[2.cc\	-oth
!!LO:PB:g=original
=12	=12	=12	=12	=12	=12	=12	=12	=12	=12	=12
!LO:TX:a:t=P:problem:brak zakończenia ligatury	!LO:TX:a:t=P:problem:brak zakończenia ligatury	!	!LO:TX:a:t=P:problem:koniec ligatury na górze	!	!	!	!LO:TX:a:t=P:problem:koniec ligatury na górze	!	!	!
2C] 2CC/]	2cc] 2e\]	.	2C/]	.	2c\]	.	2e/]	.	2cc\]	.
4r	4r	.	4r	.	4r	.	4r	.	4r	.
=13||	=13||	=13||	=13||	=13||	=13||	=13||	=13||	=13||	=13||	=13||
*k[f#]	*k[f#]	*	*k[f#]	*	*k[f#]	*	*k[f#]	*	*k[f#]	*
*M3/4	*M3/4	*	*M3/4	*	*M3/4	*	*M3/4	*	*M3/4	*
*^	*	*	*	*	*	*	*	*	*	*
!LO:N:vis=2	!	!	!	!	!	!	!	!	!	!LO:TX:a:Bi:t=Allo molto vivace	!
8GG/L	2.GG\	8gg\L	f	2.r	.	2.r	.	2.r	.	2.r	.
(<8BB/	.	8ff#\	.	.	.	.	.	.	.	.	.
8D/	.	8gg\	.	.	.	.	.	.	.	.	.
8G/	.	8dd\	.	.	.	.	.	.	.	.	.
8D/	.	8ee\	.	.	.	.	.	.	.	.	.
8BB/J)	.	8ff#\J	.	.	.	.	.	.	.	.	.
=14	=14	=14	=14	=14	=14	=14	=14	=14	=14	=14	=14
*rep	*rep	*	*	*	*	*	*	*	*	*	*
!LO:N:vis=2	!	!	!	!	!	!	!	!	!	!	!
8GG/L	2.GG\	8gg\L	.	2.r	.	2.r	.	2.r	.	2.r	.
(<8BB/	.	8aa\	.	.	.	.	.	.	.	.	.
8D/	.	8bb\	.	.	.	.	.	.	.	.	.
8G/	.	8gg\	.	.	.	.	.	.	.	.	.
8D/	.	8dd\	.	.	.	.	.	.	.	.	.
8BB/J)	.	8b\J	.	.	.	.	.	.	.	.	.
*Xrep	*Xrep	*	*	*	*	*	*	*	*	*	*
=15	=15	=15	=15	=15	=15	=15	=15	=15	=15	=15	=15
!LO:N:vis=2	!	!	!	!	!	!	!	!	!	!	!
8GG/L	2.GG\	8cc\L	.	2.r	.	2.r	.	2.r	.	2.r	.
(<8C/	.	8b\	.	.	.	.	.	.	.	.	.
8E/	.	8cc\	.	.	.	.	.	.	.	.	.
8G/	.	8g\	.	.	.	.	.	.	.	.	.
8E/	.	8a\	.	.	.	.	.	.	.	.	.
8C/J)	.	8b\J	.	.	.	.	.	.	.	.	.
=16	=16	=16	=16	=16	=16	=16	=16	=16	=16	=16	=16
*rep	*rep	*	*	*	*	*	*	*	*	*	*
!LO:N:vis=2	!	!	!	!	!	!	!	!	!	!	!
8GG/L	2.GG\	8cc\L	.	2.r	.	2.r	.	2.r	.	2.r	.
(<8C/	.	8dd\	.	.	.	.	.	.	.	.	.
8E/	.	8ee\	.	.	.	.	.	.	.	.	.
8G/	.	8cc\	.	.	.	.	.	.	.	.	.
8E/	.	8g\	.	.	.	.	.	.	.	.	.
8C/J)	.	8e\J	.	.	.	.	.	.	.	.	.
*Xrep	*Xrep	*	*	*	*	*	*	*	*	*	*
=17	=17	=17	=17	=17	=17	=17	=17	=17	=17	=17	=17
!LO:N:vis=2	!	!	!	!	!	!	!	!	!	!	!
8GG/L	2.GG\	8f#/L	.	2.r	.	2.r	.	2.r	.	2.r	.
(<8C/	.	8g/	.	.	.	.	.	.	.	.	.
8D/	.	8a/	.	.	.	.	.	.	.	.	.
8F#/	.	8b/	.	.	.	.	.	.	.	.	.
8D/	.	8cc/	.	.	.	.	.	.	.	.	.
8C/J)	.	8dd/J	.	.	.	.	.	.	.	.	.
=18	=18	=18	=18	=18	=18	=18	=18	=18	=18	=18	=18
*rep	*rep	*	*	*	*	*	*	*	*	*	*
!LO:N:vis=2	!	!	!	!	!	!	!	!	!	!	!
8GG/L	2.GG\	8ee\L	.	2.r	.	2.r	.	2.r	.	2.r	.
(<8C/	.	8dd\	.	.	.	.	.	.	.	.	.
8D/	.	8ee\	.	.	.	.	.	.	.	.	.
8F#/	.	8ff#\	.	.	.	.	.	.	.	.	.
8D/	.	8gg\	.	.	.	.	.	.	.	.	.
8C/J)	.	8aa\J	.	.	.	.	.	.	.	.	.
*Xrep	*Xrep	*	*	*	*	*	*	*	*	*	*
*v	*v	*	*	*	*	*	*	*	*	*	*
=19	=19	=19	=19	=19	=19	=19	=19	=19	=19	=19
4G 4D 4BB 4GG\	4bb\	.	2.r	.	2.r	.	2.r	.	2.r	.
4r	4r	.	.	.	.	.	.	.	.	.
4r	4r	.	.	.	.	.	.	.	.	.
=20	=20	=20	=20	=20	=20	=20	=20	=20	=20	=20
2.r	2.r	.	2.r	.	2.r	.	4b 4g\	.	4dd\	Ple-
.	.	.	.	.	.	.	4b 4g\	.	4dd\	-ni
.	.	.	.	.	.	.	4b 4g\	.	4dd\	sunt
=21	=21	=21	=21	=21	=21	=21	=21	=21	=21	=21
2.r	2.r	.	2.r	.	2.r	.	[2.b [>2.g\	.	2gg\	coe-
.	.	.	.	.	.	.	.	.	4dd\	.
=22	=22	=22	=22	=22	=22	=22	=22	=22	=22	=22
2.r	2.r	.	2.r	.	2.r	.	2.b_ 2.g\_>	.	2b\	.
.	.	.	.	.	.	.	.	.	4dd\	.
=23	=23	=23	=23	=23	=23	=23	=23	=23	=23	=23
2.r	2.r	.	2.r	.	2.r	.	2.b] 2.g\]	.	2.gg\	.
!!LO:LB:g=original
=24	=24	=24	=24	=24	=24	=24	=24	=24	=24	=24
2.r	2.r	.	4r	.	4r	.	4b 4g\	.	4dd\	-li
.	.	.	4r	.	4r	.	4r	.	4r	.
.	.	.	4G\	.	4B 4G/	et	4r	.	4r	.
=25	=25	=25	=25	=25	=25	=25	=25	=25	=25	=25
2.r	2.r	.	2.C/	.	2.c 2.E/	ter-	2.r	.	2.r	.
=26	=26	=26	=26	=26	=26	=26	=26	=26	=26	=26
2.r	2.r	.	2D/	.	2A 2F#/	-rae	2.r	.	2.r	.
.	.	.	4D/	.	4d 4F#/	et	.	.	.	.
=27	=27	=27	=27	=27	=27	=27	=27	=27	=27	=27
2.r	2.r	.	2.G\	.	2.B 2.G/	ter-	2.r	.	2.r	.
=28	=28	=28	=28	=28	=28	=28	=28	=28	=28	=28
*	*	*	*	*	*^	*	*	*	*	*
2.r	2.r	.	4G\	.	4G/	4G\	-rae	4b 4g\	.	4dd\	Ple-
.	.	.	4r	.	4r	4ryy	.	4b 4g\	.	4dd\	-ni
.	.	.	4r	.	4r	4ryy	.	4b 4g\	.	4dd\	sunt
*	*	*	*	*	*v	*v	*	*	*	*	*
=29	=29	=29	=29	=29	=29	=29	=29	=29	=29	=29
2.r	2.r	.	2.r	.	2.r	.	[2.b [>2.g\	.	2gg\	coe-
.	.	.	.	.	.	.	.	.	4dd\	.
=30	=30	=30	=30	=30	=30	=30	=30	=30	=30	=30
2.r	2.r	.	2.r	.	2.r	.	2.b_ 2.g\_>	.	2b\	.
.	.	.	.	.	.	.	.	.	4dd\	.
=31	=31	=31	=31	=31	=31	=31	=31	=31	=31	=31
2.r	2.r	.	2.r	.	2.r	.	2.b] 2.g\]	.	2.gg\	.
=32	=32	=32	=32	=32	=32	=32	=32	=32	=32	=32
2.r	2.r	.	4r	.	4r	.	4b 4g\	.	4dd\	-li
.	.	.	4r	.	4r	.	4r	.	4r	.
.	.	.	4G\	.	4B 4G/	et	4r	.	4r	.
=33	=33	=33	=33	=33	=33	=33	=33	=33	=33	=33
2.r	2.r	.	2.C/	.	2.c 2.E/	ter-	2.r	.	2.r	.
=34	=34	=34	=34	=34	=34	=34	=34	=34	=34	=34
2.r	2.r	.	2D/	.	2A 2F#/	-rae	2.r	.	2.r	.
.	.	.	4D/	.	4d 4F#/	et	.	.	.	.
=35	=35	=35	=35	=35	=35	=35	=35	=35	=35	=35
*^	*	*	*	*	*	*	*	*	*	*
!LO:N:vis=2	!	!	!	!	!	!	!	!	!	!	!
8GG/L	2.GG\	8gg\L	.	2.G\	.	2.B 2.G/	ter-	2.r	.	2.r	.
(<8BB/	.	8ff#\	.	.	.	.	.	.	.	.	.
8D/	.	8gg\	.	.	.	.	.	.	.	.	.
8G/	.	8dd\	.	.	.	.	.	.	.	.	.
8D/	.	8ee\	.	.	.	.	.	.	.	.	.
8BB/J)	.	8ff#\J	.	.	.	.	.	.	.	.	.
=36	=36	=36	=36	=36	=36	=36	=36	=36	=36	=36	=36
*	*	*	*	*	*	*^	*	*	*	*	*
*rep	*rep	*	*	*	*	*	*	*	*	*	*	*
!LO:N:vis=2	!	!	!	!	!	!	!	!	!	!	!	!
8GG/L	2.GG\	8gg\L	.	4G\	.	4G/	4G\	-rae	2.r	.	2.r	.
(<8BB/	.	8aa\	.	.	.	.	.	.	.	.	.	.
8D/	.	8bb\	.	4r	.	4r	4ryy	.	.	.	.	.
8G/	.	8gg\	.	.	.	.	.	.	.	.	.	.
8D/	.	8dd\	.	4r	.	4r	4ryy	.	.	.	.	.
8BB/J)	.	8b\J	.	.	.	.	.	.	.	.	.	.
*Xrep	*Xrep	*	*	*	*	*	*	*	*	*	*	*
*	*	*	*	*	*	*v	*v	*	*	*	*	*
!!LO:PB:g=original
=37	=37	=37	=37	=37	=37	=37	=37	=37	=37	=37	=37
!LO:N:vis=2	!	!	!	!	!	!	!	!	!	!	!
8GG/L	2.GG\	8cc\L	.	2.r	.	2.r	.	2.r	.	2.r	.
(<8C/	.	8b\	.	.	.	.	.	.	.	.	.
8E/	.	8cc\	.	.	.	.	.	.	.	.	.
8G/	.	8g\	.	.	.	.	.	.	.	.	.
8E/	.	8a\	.	.	.	.	.	.	.	.	.
8C/J)	.	8b\J	.	.	.	.	.	.	.	.	.
=38	=38	=38	=38	=38	=38	=38	=38	=38	=38	=38	=38
*rep	*rep	*	*	*	*	*	*	*	*	*	*
!LO:N:vis=2	!	!	!	!	!	!	!	!	!	!	!
8GG/L	2.GG\	8cc\L	.	4.G\	.	4.c\	Glo-	4.e/	.	4.ee\	Glo-
(<8C/	.	8dd\	.	.	.	.	.	.	.	.	.
8E/	.	8ee\	.	.	.	.	.	.	.	.	.
8G/	.	8cc\	.	8G\	.	8c\	-ri-	8e/	.	8ee\	-ri-
8E/	.	8g\	.	4G\	.	4c\	-a	4e/	.	4ee\	-a
8C/J)	.	8e\J	.	.	.	.	.	.	.	.	.
*Xrep	*Xrep	*	*	*	*	*	*	*	*	*	*
=39	=39	=39	=39	=39	=39	=39	=39	=39	=39	=39	=39
!LO:N:vis=2	!	!	!	!	!	!	!	!	!	!	!
8GG/L	2.GG\	8f#\L	.	[2.G\	.	[2.c\	tu-	[2.f#/	.	[2.dd\	tu-
(<8C/	.	8g\	.	.	.	.	.	.	.	.	.
8D/	.	8a\	.	.	.	.	.	.	.	.	.
8F#/	.	8b\	.	.	.	.	.	.	.	.	.
8D/	.	8cc\	.	.	.	.	.	.	.	.	.
8C/J)	.	8dd\J	.	.	.	.	.	.	.	.	.
=40	=40	=40	=40	=40	=40	=40	=40	=40	=40	=40	=40
*rep	*rep	*	*	*	*	*	*	*	*	*	*
!LO:N:vis=2	!	!	!	!	!	!	!	!	!	!	!
8GG/L	2.GG\	8ee\L	.	2.G\]	.	2.c\]	.	2.f#/]	.	2.dd\]	.
(<8C/	.	8dd\	.	.	.	.	.	.	.	.	.
8D/	.	8ee\	.	.	.	.	.	.	.	.	.
8F#/	.	8ff#\	.	.	.	.	.	.	.	.	.
8D/	.	8gg\	.	.	.	.	.	.	.	.	.
8C/J)	.	8aa\J	.	.	.	.	.	.	.	.	.
*Xrep	*Xrep	*	*	*	*	*	*	*	*	*	*
=41	=41	=41	=41	=41	=41	=41	=41	=41	=41	=41	=41
!LO:N:vis=2	!	!	!	!	!	!	!	!	!	!	!
8GG/L	2.GG\	8bb\L	.	4G\	.	4B\	-a	4g/	.	4dd\	-a
(<8BB/	.	8aa#X\	.	.	.	.	.	.	.	.	.
8D/	.	8bb\	.	4r	.	4r	.	4r	.	4r	.
8G/	.	8gg\	.	.	.	.	.	.	.	.	.
8D/	.	8dd\	.	4r	.	4r	.	4r	.	4r	.
8BB/J)	.	8b\J	.	.	.	.	.	.	.	.	.
=42	=42	=42	=42	=42	=42	=42	=42	=42	=42	=42	=42
*rep	*rep	*	*	*	*	*	*	*	*	*	*
!LO:N:vis=2	!	!	!	!	!	!	!	!	!	!	!
8GG/L	2.GG\	8g\L	.	2.r	.	2.r	.	2.r	.	2.r	.
(<8BB/	.	8b\	.	.	.	.	.	.	.	.	.
8D/	.	8cc\	.	.	.	.	.	.	.	.	.
8G/	.	8dd\	.	.	.	.	.	.	.	.	.
8D/	.	8ee\	.	.	.	.	.	.	.	.	.
8BB/J)	.	8ff#\J	.	.	.	.	.	.	.	.	.
*Xrep	*Xrep	*	*	*	*	*	*	*	*	*	*
=43	=43	=43	=43	=43	=43	=43	=43	=43	=43	=43	=43
*rep	*rep	*	*	*	*	*	*	*	*	*	*
!LO:N:vis=2	!	!	!	!	!	!	!	!	!	!	!
8GG/L	2.GG\	8gg\L	.	2.r	.	2.r	.	2.r	.	2.r	.
(<8BB/	.	8ff#\	.	.	.	.	.	.	.	.	.
8D/	.	8gg\	.	.	.	.	.	.	.	.	.
8G/	.	8dd\	.	.	.	.	.	.	.	.	.
8D/	.	8ee\	.	.	.	.	.	.	.	.	.
8BB/J)	.	8ff#\J	.	.	.	.	.	.	.	.	.
*Xrep	*Xrep	*	*	*	*	*	*	*	*	*	*
=44	=44	=44	=44	=44	=44	=44	=44	=44	=44	=44	=44
*rep	*rep	*	*	*	*	*	*	*	*	*	*
!LO:N:vis=2	!	!	!	!	!	!	!	!	!	!	!
8GG/L	2.GG\	8gg\L	.	2.r	.	2.r	.	2.r	.	2.r	.
(<8BB/	.	8aa\	.	.	.	.	.	.	.	.	.
8D/	.	8bb\	.	.	.	.	.	.	.	.	.
8G/	.	8gg\	.	.	.	.	.	.	.	.	.
8D/	.	8dd\	.	.	.	.	.	.	.	.	.
8BB/J)	.	8b\J	.	.	.	.	.	.	.	.	.
*Xrep	*Xrep	*	*	*	*	*	*	*	*	*	*
=45	=45	=45	=45	=45	=45	=45	=45	=45	=45	=45	=45
!LO:N:vis=2	!	!	!	!	!	!	!	!	!	!	!
8GG/L	2.GG\	8cc\L	.	2.r	.	2.r	.	2.r	.	2.r	.
(<8C/	.	8b\	.	.	.	.	.	.	.	.	.
8E/	.	8cc\	.	.	.	.	.	.	.	.	.
8G/	.	8g\	.	.	.	.	.	.	.	.	.
8E/	.	8a\	.	.	.	.	.	.	.	.	.
8C/J)	.	8b\J	.	.	.	.	.	.	.	.	.
=46	=46	=46	=46	=46	=46	=46	=46	=46	=46	=46	=46
*rep	*rep	*	*	*	*	*	*	*	*	*	*
!LO:N:vis=2	!	!	!	!	!	!	!	!	!	!	!
8GG/L	2.GG\	8cc\L	.	4.G\	.	4.c\	Glo-	4.e/	.	4.ee\	Glo-
(<8C/	.	8dd\	.	.	.	.	.	.	.	.	.
8E/	.	8ee\	.	.	.	.	.	.	.	.	.
8G/	.	8cc\	.	8G\	.	8c\	-ri-	8e/	.	8ee\	-ri-
8E/	.	8g\	.	4G\	.	4c\	-a	4e/	.	4ee\	-a
8C/J)	.	8e\J	.	.	.	.	.	.	.	.	.
*Xrep	*Xrep	*	*	*	*	*	*	*	*	*	*
=47	=47	=47	=47	=47	=47	=47	=47	=47	=47	=47	=47
!LO:N:vis=2	!	!	!	!	!	!	!	!	!	!	!
8GG/L	2.GG\	8f#\L	.	[2.G\	.	[2.c\	tu-	[2.f#/	.	[2.dd\	tu-
(<8C/	.	8g\	.	.	.	.	.	.	.	.	.
8D/	.	8a\	.	.	.	.	.	.	.	.	.
8F#/	.	8b\	.	.	.	.	.	.	.	.	.
8D/	.	8cc\	.	.	.	.	.	.	.	.	.
8C/J)	.	8dd\J	.	.	.	.	.	.	.	.	.
!!LO:LB:g=original
=48	=48	=48	=48	=48	=48	=48	=48	=48	=48	=48	=48
!LO:N:vis=2	!	!	!	!	!	!	!	!LO:TX:a:t=P:problem:koniec ligatury na górze	!	!	!
8GG/L	2.GG\	8ee\L	.	2.G\]	.	2.c\]	.	2.f#/]	.	2.dd\]	.
(<8C/	.	8dd\	.	.	.	.	.	.	.	.	.
8D/	.	8ee\	.	.	.	.	.	.	.	.	.
8F#/	.	8ff#\	.	.	.	.	.	.	.	.	.
8D/	.	8gg\	.	.	.	.	.	.	.	.	.
8C/J)	.	8aa\J	.	.	.	.	.	.	.	.	.
=49	=49	=49	=49	=49	=49	=49	=49	=49	=49	=49	=49
!LO:N:vis=2	!	!	!	!	!	!	!	!	!	!	!
8GG/L	2.GG\	8bb\L	.	4G\	.	4B\	-a	4g/	.	4dd\	-a
(<8BB/	.	8aa#X\	.	.	.	.	.	.	.	.	.
8D/	.	8bb\	.	4r	.	4r	.	4r	.	4r	.
8G/	.	8gg\	.	.	.	.	.	.	.	.	.
8D/	.	8dd\	.	4r	.	4r	.	4r	.	4r	.
8BB/J)	.	8b\J	.	.	.	.	.	.	.	.	.
=50	=50	=50	=50	=50	=50	=50	=50	=50	=50	=50	=50
*rep	*rep	*	*	*	*	*	*	*	*	*	*
!LO:N:vis=2	!	!	!	!	!	!	!	!	!	!	!
8GG/L	2.GG\	8g/L	.	2.r	.	2.r	.	2.r	.	2.r	.
(<8BB/	.	8f#/	.	.	.	.	.	.	.	.	.
8D/	.	8g/	.	.	.	.	.	.	.	.	.
8G/	.	8b/	.	.	.	.	.	.	.	.	.
8D/	.	8cc/	.	.	.	.	.	.	.	.	.
8BB/J)	.	8dd/J	.	.	.	.	.	.	.	.	.
*Xrep	*Xrep	*	*	*	*	*	*	*	*	*	*
=51	=51	=51	=51	=51	=51	=51	=51	=51	=51	=51	=51
!LO:N:vis=2	!	!	!	!	!	!	!	!	!	!	!
8GG/L	2.GG\	8ee\L	.	[2.G\	.	[2.G/	Glo-	[2.g/	.	[2.g/	Glo-
(<8C/	.	8dd#X\	.	.	.	.	.	.	.	.	.
8E/	.	8ee\	.	.	.	.	.	.	.	.	.
8G/	.	8cc\	.	.	.	.	.	.	.	.	.
8E/	.	8g\	.	.	.	.	.	.	.	.	.
8C/J)	.	8e\J	.	.	.	.	.	.	.	.	.
=52	=52	=52	=52	=52	=52	=52	=52	=52	=52	=52	=52
*rep	*rep	*	*	*	*	*	*	*	*	*	*
!LO:N:vis=2	!	!	!	!	!	!	!	!	!	!	!
8GG/L	2.GG\	8c/L	.	4G\]	.	4G/]	.	4g/]	.	4g/]	.
(<8C/	.	8B/	.	.	.	.	.	.	.	.	.
8E/	.	8c/	.	4G\	.	4G/	-ri-	4g/	.	4g/	-ri-
8G/	.	8e/	.	.	.	.	.	.	.	.	.
8E/	.	8f#/	.	4G\	.	4G/	-a	4g/	.	4g/	-a
8C/J)	.	8g/J	.	.	.	.	.	.	.	.	.
*Xrep	*Xrep	*	*	*	*	*	*	*	*	*	*
=53	=53	=53	=53	=53	=53	=53	=53	=53	=53	=53	=53
!LO:N:vis=2	!	!	!	!	!	!	!	!	!	!	!
8GG/L	2.GG\	8a/L	.	[2.c\	.	[2.c\	tu-	[2.cc\	.	[2.cc\	tu-
(<8C/	.	8g#X/	.	.	.	.	.	.	.	.	.
8D/	.	8a/	.	.	.	.	.	.	.	.	.
8F#/	.	8f#/	.	.	.	.	.	.	.	.	.
8D/	.	8d/	.	.	.	.	.	.	.	.	.
8C/J)	.	8e/J	.	.	.	.	.	.	.	.	.
=54	=54	=54	=54	=54	=54	=54	=54	=54	=54	=54	=54
*rep	*rep	*	*	*	*	*	*	*	*	*	*
!LO:N:vis=2	!	!	!	!	!	!LO:N:vis=2	!	!	!	!	!
8GG/L	2.GG\	8f#/L	.	2.c\]	.	2.c\]	.	2.cc\]	.	2.cc\]	.
(<8C/	.	8gn/	.	.	.	.	.	.	.	.	.
8D/	.	8a/	.	.	.	.	.	.	.	.	.
8F#/	.	8b/	.	.	.	.	.	.	.	.	.
8D/	.	8cc/	.	.	.	.	.	.	.	.	.
8C/J)	.	8a/J	.	.	.	.	.	.	.	.	.
*Xrep	*Xrep	*	*	*	*	*	*	*	*	*	*
*v	*v	*	*	*	*	*	*	*	*	*	*
=55	=55	=55	=55	=55	=55	=55	=55	=55	=55	=55
4G 4D 4BB 4GG\	8g/L	.	4B\	.	4B\	-a	4b\	.	4b\	a
.	8g#X/	.	.	.	.	.	.	.	.	.
4r	8b/	.	4r	.	4r	.	4r	.	4r	.
.	8a/	.	.	.	.	.	.	.	.	.
4r	8gn/	.	4r	.	4r	.	4r	.	4r	.
.	8fn/J	.	.	.	.	.	.	.	.	.
=56	=56	=56	=56	=56	=56	=56	=56	=56	=56	=56
2.r	8e/L	.	2.r	.	2.r	.	2.r	.	2.r	.
.	8fn/	.	.	.	.	.	.	.	.	.
.	8a/	.	.	.	.	.	.	.	.	.
.	8g/	.	.	.	.	.	.	.	.	.
.	8f/	.	.	.	.	.	.	.	.	.
.	8e/J	.	.	.	.	.	.	.	.	.
=57	=57	=57	=57	=57	=57	=57	=57	=57	=57	=57
2.r	8d/L	.	2.r	.	2.r	.	2.r	.	2.r	.
.	8e/	.	.	.	.	.	.	.	.	.
.	8g/	.	.	.	.	.	.	.	.	.
.	8fn/	.	.	.	.	.	.	.	.	.
.	8e/	.	.	.	.	.	.	.	.	.
.	8d/J	.	.	.	.	.	.	.	.	.
=58	=58	=58	=58	=58	=58	=58	=58	=58	=58	=58
2.rAA	8c</L	.	2.r	.	2.r	.	2.r	.	2.r	.
.	8B</	.	.	.	.	.	.	.	.	.
.	8A</	.	.	.	.	.	.	.	.	.
.	8G</	.	.	.	.	.	.	.	.	.
.	8A</	.	.	.	.	.	.	.	.	.
.	8B</J	.	.	.	.	.	.	.	.	.
!!LO:PB:g=original
=59||	=59||	=59||	=59||	=59||	=59||	=59||	=59||	=59||	=59||	=59||
*k[]	*k[]	*	*k[]	*	*k[]	*	*k[]	*	*k[]	*
*M6/8	*M6/8	*	*M6/8	*	*M6/8	*	*M6/8	*	*M6/8	*
!	!	!	!	!	!	!	!	!	!LO:TX:a:Bi:t=Ce même mouvement.	!
4CC/	4c/	.	2.r	.	2.r	.	2.r	.	2.r	.
8C/	8g 8e 8c 8G/	.	.	.	.	.	.	.	.	.
4CC/	4g 4e 4c 4G/	.	.	.	.	.	.	.	.	.
8C/	8g 8e 8c 8G/	.	.	.	.	.	.	.	.	.
=60	=60	=60	=60	=60	=60	=60	=60	=60	=60	=60
*rep	*	*	*	*	*	*	*	*	*	*
4CC/	4g 4e 4c 4G/	.	4r	.	4r	.	4r	.	4r	.
8C/	8g 8e 8c 8G/	.	8r	.	8r	.	8r	.	8r	.
4CC/	4g 4e 4c 4G/	.	4r	.	4r	.	4r	.	4r	.
8C/	8g 8e 8c 8G/	.	8G\	.	8G/	.	8g/	.	8g/	O-
*Xrep	*	*	*	*	*	*	*	*	*	*
=61	=61	=61	=61	=61	=61	=61	=61	=61	=61	=61
*rep	*	*	*	*	*	*	*	*	*	*
4CC/	4g 4e 4c 4G/	.	4c\	.	4c\	.	4cc\	.	4cc\	-san-
8C/	8e 8c 8G/	.	8d\	.	8d\	.	8dd\	.	8dd\	-na
4CC/	4f 4d 4B 4G/	.	8B\L	.	8B\L	.	8b\L	.	8b\L	in
.	.	.	8A\J	.	8A\J	.	8a\J	.	8a\J	.
8C/	8f 8d 8B 8G/	.	8B\	.	8B\	.	8b\	.	8b\	ex-
*Xrep	*	*	*	*	*	*	*	*	*	*
=62	=62	=62	=62	=62	=62	=62	=62	=62	=62	=62
*rep	*	*	*	*	*	*	*	*	*	*
4CC/	4e 4c 4G/	.	4.c\	.	4.c\	.	4.cc\	.	4.cc\	-cel-
8C/	8e 8c 8G/	.	.	.	.	.	.	.	.	.
4CC/	4g 4e 4B-X/	.	4.G\	.	4.G/	.	4.g/	.	4.g/	-sis
8C/	8g 8e 8B-/	.	.	.	.	.	.	.	.	.
*Xrep	*	*	*	*	*	*	*	*	*	*
=63	=63	=63	=63	=63	=63	=63	=63	=63	=63	=63
*rep	*	*	*	*	*	*	*	*	*	*
!	!	!	!LO:N:vis=4	!	!	!	!	!	!	!
4CC/	4f#X 4d 4A/	.	[4.A\	.	[4.A/	.	[4.a/	.	[4.a/	De-
8C/	8f# 8d 8A/	.	.	.	.	.	.	.	.	.
4CC/	4fn 4d 4G/	.	8A\L]	.	8A/L]	.	8a/L]	.	8a/L]	.
.	.	.	8B\	.	8B/	.	8b/	.	8b/	.
8C/	8f 8d 8G/	.	8G\J	.	8G/J	.	8g/J	.	8g/J	.
*Xrep	*	*	*	*	*	*	*	*	*	*
=64	=64	=64	=64	=64	=64	=64	=64	=64	=64	=64
*rep	*	*	*	*	*	*	*	*	*	*
4CC/	4e 4c 4G/	.	4c\	.	4c\	.	4cc\	.	4cc\	-o
8C/	8e 8c 8G/	.	8r	.	8r	.	8r	.	8r	.
4CC/	4e 4c 4G/	.	4r	.	4r	.	4r	.	4r	.
8C/	8e 8c 8G/	.	8G\	.	8G/	.	8g/	.	8g/	O-
*Xrep	*	*	*	*	*	*	*	*	*	*
=65	=65	=65	=65	=65	=65	=65	=65	=65	=65	=65
*rep	*	*	*	*	*	*	*	*	*	*
4CC/	4e 4c 4G/	.	4c\	.	4c\	.	4cc\	.	4cc\	-san-
8C/	8e 8c 8G/	.	8d\	.	8d\	.	8dd\	.	8dd\	-na
4CC/	4f 4d 4B 4G/	.	8B\L	.	8B\L	.	8b\L	.	8b\L	in
.	.	.	8A\J	.	8A\J	.	8a\J	.	8a\J	.
8C/	8f 8d 8B 8G/	.	8B\	.	8B\	.	8b\	.	8b\	ex-
*Xrep	*	*	*	*	*	*	*	*	*	*
=66	=66	=66	=66	=66	=66	=66	=66	=66	=66	=66
*rep	*	*	*	*	*	*	*	*	*	*
4CC/	4e 4c 4G/	.	4.c\	.	4.c\	.	4.cc\	.	4.cc\	-cel-
8C/	8e 8c 8G/	.	.	.	.	.	.	.	.	.
4CC/	4g 4e 4B-X/	.	4.G\	.	4.G/	.	4.g/	.	4.g/	-sis
8C/	8g 8e 8B-/	.	.	.	.	.	.	.	.	.
*Xrep	*	*	*	*	*	*	*	*	*	*
=67	=67	=67	=67	=67	=67	=67	=67	=67	=67	=67
*rep	*	*	*	*	*	*	*	*	*	*
!	!	!	!LO:N:vis=4	!	!	!	!	!	!	!
4CC/	4f#X 4d 4A/	.	[4.A\	.	[4.A/	.	[4.a/	.	[4.a/	De-
8C/	8f# 8d 8A/	.	.	.	.	.	.	.	.	.
4CC/	4fn 4d 4G/	.	8A\L]	.	8A/L]	.	8a/L]	.	8a/L]	.
.	.	.	8B\	.	8B/	.	8b/	.	8b/	.
8C/	8f 8d 8G/	.	8G\J	.	8G/J	.	8g/J	.	8g/J	.
*Xrep	*	*	*	*	*	*	*	*	*	*
=68	=68	=68	=68	=68	=68	=68	=68	=68	=68	=68
!	!LO:TX:a:t=e\nc\ng	!	!	!	!	!	!	!	!	!
4CC/	4e 4c 4G/	.	4c\	.	4c\	.	4cc\	.	4cc\	-o
!	!LO:TX:a:t=e\nc	!	!	!	!	!	!	!	!	!
8C/	8e 8c/	.	8r	.	8r	.	8r	.	8r	.
!	!LO:TX:a:t=gis\nh	!	!	!	!	!	!	!	!	!
4EE/	4g#X 4d 4B/	.	4r	.	4r	.	4r	.	4r	.
!	!LO:TX:a:t=g\nd\nh	!	!	!	!	!	!	!	!	!
8E\	8g# 8d 8B/	.	8E\	.	8E/	.	8e/	.	8ee\	O-
!!LO:LB:g=original
=69	=69	=69	=69	=69	=69	=69	=69	=69	=69	=69
4AA/	4a 4e 4c/	.	[2.A\	san-	4c\	.	4a/	O-	[2.ee\	-san-
8A\	8a 8e 8c/	.	.	.	8d\	.	8b/	-san	.	.
4AA/	4g#X 4d 4B/	.	.	.	8B\L	.	8g#X/L	na	.	.
.	.	.	.	.	8A\J	.	8f#X/J	in	.	.
8A\	8g# 8d 8B/	.	.	.	8B\	.	8g#/	ex-	.	.
=70	=70	=70	=70	=70	=70	=70	=70	=70	=70	=70
*rep	*rep	*	*	*	*	*	*	*	*	*
4AA/	4a 4e 4c/	.	2.A\_	.	4c\	.	4a/	-cel-	2.ee\_	.
8A\	8a 8e 8c/	.	.	.	8d\	.	8b/	-sis	.	.
4AA/	4g#X 4d 4B/	.	.	.	8B\L	.	8g#X/L	de-	.	.
.	.	.	.	.	8A\J	.	8f#X/J	.	.	.
8A\	8g# 8d 8B/	.	.	.	8B\	.	8g#/	-o	.	.
*Xrep	*Xrep	*	*	*	*	*	*	*	*	*
=71	=71	=71	=71	=71	=71	=71	=71	=71	=71	=71
*rep	*rep	*	*	*	*	*	*	*	*	*
4AA/	4a 4e 4c/	.	2.A\]	.	4c\	.	4a/	in	2.ee\]	.
8A\	8a 8e 8c/	.	.	.	8d\	.	8b/	ex-	.	.
4AA/	4g#X 4d 4B/	.	.	.	8B\L	.	8g#X/L	-cel-	.	.
.	.	.	.	.	8A\J	.	8f#X/	.	.	.
8A\	8g# 8d 8B/	.	.	.	8B\	.	8g#/J	.	.	.
*Xrep	*Xrep	*	*	*	*	*	*	*	*	*
=72	=72	=72	=72	=72	=72	=72	=72	=72	=72	=72
4AA/	4a 4e 4c/	.	4.A\	.	4.c\	.	4.a/	-sis	4.ee\	.
8A\	8a 8e 8c/	.	.	.	.	.	.	.	.	.
4GG/	4b 4f 4d/	.	4G\	-na	4d\	.	4b\	deo	8gg\L	-na
.	.	.	.	.	.	.	.	.	8ff\J	.
8G\	8b 8f 8d/	.	8G\	O-	8G/	.	8b\	O-	8dd\	O-
=73	=73	=73	=73	=73	=73	=73	=73	=73	=73	=73
4CC/	4cc 4e 4c/	.	4c\	-san-	4c\	.	4cc\	-san-	4cc\	san-
8C/	8e 8c 8G/	.	8d\	-na	8d\	.	8dd\	-na	8dd\	-na
4CC/	4f 4d 4B 4G/	.	8B\L	in	8B\L	.	8b\L	in	8b/L	in
.	.	.	8A\J	.	8A\J	.	8a\J	.	8a/J	.
8C/	8f 8d 8B 8G/	.	8B\	ex-	8B\	.	8b\	ex-	8b/	ex-
=74	=74	=74	=74	=74	=74	=74	=74	=74	=74	=74
*rep	*	*	*	*	*	*	*	*	*	*
4CC/	4e 4c 4G/	.	4.c\	-cel-	4.c\	.	4.cc\	-cel-	4.cc\	-cel-
8C/	8e 8c 8G/	.	.	.	.	.	.	.	.	.
4CC/	4g 4e 4B-X/	.	4.G\	-sis	4.G/	.	4.g/	-sis	4.g/	-sis
8C/	8g 8e 8B-/	.	.	.	.	.	.	.	.	.
*Xrep	*	*	*	*	*	*	*	*	*	*
=75	=75	=75	=75	=75	=75	=75	=75	=75	=75	=75
*rep	*	*	*	*	*	*	*	*	*	*
4CC/	4f#X 4d 4A/	.	[4.A\	De-	[4.A/	.	4.a/	De-	[4.a/	De-
8C/	8f# 8d 8A/	.	.	.	.	.	.	.	.	.
4CC/	4fn 4d 4G/	.	8A\L]	.	8A/L]	.	8a/L	.	8a/L]	.
.	.	.	8B\	.	8B/	.	8b/	.	8b/	.
8C/	8f 8d 8G/	.	8G\J	.	8G/J	.	8g/J	.	8g/J	.
*Xrep	*	*	*	*	*	*	*	*	*	*
=76	=76	=76	=76	=76	=76	=76	=76	=76	=76	=76
*rep	*	*	*	*	*	*	*	*	*	*
4CC/	4e 4c 4G/	.	4c\	-o	4c\	.	4cc\	-o	4cc\	-o
8C/	8e 8c 8G/	.	8r	.	8r	.	8r	.	8r	.
4CC/	4e 4c 4G/	.	4r	.	4r	.	4r	.	4r	.
8C/	8e 8c 8G/	.	8G\	.	8G/	.	8g/	.	8g/	O-
*Xrep	*	*	*	*	*	*	*	*	*	*
=77	=77	=77	=77	=77	=77	=77	=77	=77	=77	=77
*rep	*	*	*	*	*	*	*	*	*	*
4CC/	4e 4c 4G/	.	4c\	.	4c\	.	4cc\	.	4cc\	-san-
8C/	8e 8c 8G/	.	8d\	.	8d\	.	8dd\	.	8dd\	-na
4CC/	4f 4d 4B 4G/	.	8B\L	.	8B\L	.	8b\L	.	8b\L	in
.	.	.	8A\J	.	8A\J	.	8a\J	.	8a\J	.
8C/	8f 8d 8B 8G/	.	8B\	.	8B\	.	8b\	.	8b\	ex-
*Xrep	*	*	*	*	*	*	*	*	*	*
!!LO:PB:g=original
=78	=78	=78	=78	=78	=78	=78	=78	=78	=78	=78
4CC/	4e 4c 4G/	.	4.c\	.	4.c\	.	4.cc\	.	4.cc\	-cel-
8C/	8e 8c 8G/	.	.	.	.	.	.	.	.	.
4CC/	4g 4e 4B-X/	.	4.G\	.	4.G/	.	4.g/	.	4.g/	-sis
8C/	8g 8e 8B-/	.	.	.	.	.	.	.	.	.
=79	=79	=79	=79	=79	=79	=79	=79	=79	=79	=79
*rep	*	*	*	*	*	*	*	*	*	*
!	!	!	!LO:N:vis=4	!	!	!	!	!	!	!
4CC/	4f#X 4d 4A/	.	[4.A\	.	[4.A/	.	[4.a/	.	[4.a/	De-
8C/	8f# 8d 8A/	.	.	.	.	.	.	.	.	.
4CC/	4fn 4d 4B 4G/	.	8A\L]	.	8A/L]	.	8a/L]	.	8a/L]	.
.	.	.	8B\	.	8B/	.	8b/	.	8b/	.
8C/	8f 8d 8B 8G/	.	8G\J	.	8G/J	.	8g/J	.	8g/J	.
*Xrep	*	*	*	*	*	*	*	*	*	*
=80	=80	=80	=80	=80	=80	=80	=80	=80	=80	=80
4CC/	4e 4c 4G/	.	4c\	.	4c\	.	4cc\	.	4cc\	-o
8C/	8e 8c 8G/	.	8r	.	8r	.	8r	.	8r	.
4CC/	4e 4c 4G/	.	4r	.	4r	.	4r	.	4r	.
8r	8r	.	8c\	.	8e\	.	8g/	.	8cc\	O-
=81	=81	=81	=81	=81	=81	=81	=81	=81	=81	=81
2.r	2.r	.	4.c\	.	4.e\	.	4.e/	.	4.g/	-san-
.	.	.	4c\	.	4e\	.	4e/	.	4e/	-na
.	.	.	8c\	.	8e\	.	8g/	.	8cc\	O-
=82	=82	=82	=82	=82	=82	=82	=82	=82	=82	=82
2.r	2.r	.	4c\	.	4e\	.	4e/	.	4g/	-san-
.	.	.	8c\	.	8e\	.	8e/	.	8g/	-na
.	.	.	4c\	.	4e\	.	4e/	.	4e/	in
.	.	.	8c\	.	8e\	.	8g/	.	8cc\	ex-
=83	=83	=83	=83	=83	=83	=83	=83	=83	=83	=83
2.r	2.r	.	4.c\	.	4.e\	.	4.cc\	.	4.ee\	-cel-
.	.	.	4.G\	.	4.d\	.	4.b\	.	4.gg\	-sis
=84	=84	=84	=84	=84	=84	=84	=84	=84	=84	=84
2.r	2.r	.	4.c\	.	4.e\	.	4.cc\	.	4.ee\	De-
.	.	.	8c\	.	8e\	.	8cc\	.	8cc\	-o
.	.	.	8r	.	8r	.	8r	.	8r	.
.	.	.	8c\	.	8e\	.	8g/	.	8cc\	O-
=85	=85	=85	=85	=85	=85	=85	=85	=85	=85	=85
2.r	2.r	.	4.c\	.	4.e\	.	4.e/	.	4.g/	-san-
.	.	.	4c\	.	4e\	.	4e/	.	4e/	-na
.	.	.	8c\	.	8e\	.	8g/	.	8cc\	O-
=86	=86	=86	=86	=86	=86	=86	=86	=86	=86	=86
2.r	2.r	.	4c\	.	4e\	.	4e/	.	4g/	-san-
.	.	.	8c\	.	8e\	.	8e/	.	8g/	-na
.	.	.	4c\	.	4e\	.	4e/	.	4e/	in
.	.	.	8c\	.	8e\	.	8g/	.	8cc\	ex-
!!LO:LB:g=original
=87	=87	=87	=87	=87	=87	=87	=87	=87	=87	=87
2.r	2.r	.	4.c\	.	4.e\	.	4.cc\	.	(4.ee\	-cel-
.	.	.	4.G\	.	4.d\	.	4.b\	.	8gg\L	.
.	.	.	.	.	.	.	.	.	8ff\J)	.
.	.	f	.	.	.	.	.	.	8dd\	-sis
=88	=88	=88	=88	=88	=88	=88	=88	=88	=88	=88
16CC/LL	16ccc\LL	.	4.c\	.	4.e\	.	4.cc\	.	4.cc\	De-
16EE/	16bb\	.	.	.	.	.	.	.	.	.
16GG/	16ccc\	.	.	.	.	.	.	.	.	.
16C/	16gg\	.	.	.	.	.	.	.	.	.
16GG/	16ee\	.	.	.	.	.	.	.	.	.
16EE/JJ	16ff\JJ	.	.	.	.	.	.	.	.	.
*rep	*	*	*	*	*	*	*	*	*	*
16CC/LL	16gg\LL	.	8c\	.	8e\	.	8cc\	.	8cc\	-o
16EE/	16ff#X\	.	.	.	.	.	.	.	.	.
16GG/	16gg\	.	8r	.	8r	.	8r	.	8r	.
16C/	16ee\	.	.	.	.	.	.	.	.	.
16GG/	16cc\	.	8r	.	8r	.	8r	.	8r	.
16EE/JJ	16dd\JJ	.	.	.	.	.	.	.	.	.
*Xrep	*	*	*	*	*	*	*	*	*	*
=89	=89	=89	=89	=89	=89	=89	=89	=89	=89	=89
*rep	*	*	*	*	*	*	*	*	*	*
16CC/LL	16ee\LL	.	2.r	.	2.r	.	2.r	.	2.r	.
16EE/	16dd#X\	.	.	.	.	.	.	.	.	.
16GG/	16ee\	.	.	.	.	.	.	.	.	.
16C/	16cc\	.	.	.	.	.	.	.	.	.
16GG/	16g\	.	.	.	.	.	.	.	.	.
16EE/JJ	16b\JJ	.	.	.	.	.	.	.	.	.
16CC/LL	16cc\LL	.	.	.	.	.	.	.	.	.
16EE/	16b\	.	.	.	.	.	.	.	.	.
16GG/	16cc\	.	.	.	.	.	.	.	.	.
16C/	16g\	.	.	.	.	.	.	.	.	.
16GG/	16e\	.	.	.	.	.	.	.	.	.
16EE/JJ	16g\JJ	.	.	.	.	.	.	.	.	.
*Xrep	*	*	*	*	*	*	*	*	*	*
=90	=90	=90	=90	=90	=90	=90	=90	=90	=90	=90
*rep	*	*	*	*	*	*	*	*	*	*
16CC/LL	4c/	.	2.r	.	2.r	.	2.r	.	2.r	.
16EE/	.	.	.	.	.	.	.	.	.	.
16GG/	.	.	.	.	.	.	.	.	.	.
16C/	.	.	.	.	.	.	.	.	.	.
16GG/	8r	.	.	.	.	.	.	.	.	.
16EE/JJ	.	.	.	.	.	.	.	.	.	.
16CC/LL	4r	.	.	.	.	.	.	.	.	.
16EE/	.	.	.	.	.	.	.	.	.	.
16GG/	.	.	.	.	.	.	.	.	.	.
16C/	.	.	.	.	.	.	.	.	.	.
16GG/	8r	.	.	.	.	.	.	.	.	.
16EE/JJ	.	.	.	.	.	.	.	.	.	.
*Xrep	*	*	*	*	*	*	*	*	*	*
=91	=91	=91	=91	=91	=91	=91	=91	=91	=91	=91
*rep	*	*	*	*	*	*	*	*	*	*
16CC/LL	[2.e [>2.c [2.G/	.	2.r	.	2.r	.	2.r	.	2.r	.
16EE/	.	.	.	.	.	.	.	.	.	.
16GG/	.	.	.	.	.	.	.	.	.	.
16C/	.	.	.	.	.	.	.	.	.	.
16GG/	.	.	.	.	.	.	.	.	.	.
16EE/JJ	.	.	.	.	.	.	.	.	.	.
16CC/LL	.	.	.	.	.	.	.	.	.	.
16EE/	.	.	.	.	.	.	.	.	.	.
16GG/	.	.	.	.	.	.	.	.	.	.
16C/	.	.	.	.	.	.	.	.	.	.
16GG/	.	.	.	.	.	.	.	.	.	.
16EE/JJ	.	.	.	.	.	.	.	.	.	.
*Xrep	*	*	*	*	*	*	*	*	*	*
=92	=92	=92	=92	=92	=92	=92	=92	=92	=92	=92
4CC/	4e] 4c] 4G/]	.	2.r	.	2.r	.	2.r	.	2.r	.
8r	8r	.	.	.	.	.	.	.	.	.
4r	4r	.	.	.	.	.	.	.	.	.
8r	8r	.	.	.	.	.	.	.	.	.
==	==	==	==	==	==	==	==	==	==	==
*-	*-	*-	*-	*-	*-	*-	*-	*-	*-	*-
!!!system-decoration: <s1,s2,s3,s4>[(p5)]
!!!RDF**kern: > = above
!!!RDF**kern: < = below
!!!ENC: Andrzej Kubiczek
!!!END: 2021-06-06
!!!ENC: Marcin Jachim
!!!END: 2021-05-14
